packages/icons/raw/imported/MediaFastForward.svg

<svg width="32" height="32" viewBox="0 0 32 32" fill="none" xmlns="http://www.w3.org/2000/svg">
<path d="M10.1607 22.4547L15.1055 18.0899C16.2982 17.0371 16.2982 14.9629 15.1055 13.9101L10.1607 9.54534C8.66191 8.22238 6.5 9.45664 6.5 11.6353L6.5 20.3647C6.5 22.5434 8.66191 23.7776 10.1607 22.4547Z" stroke="black"/>
<path d="M19.6607 22.4547L24.6055 18.0899C25.7982 17.0371 25.7982 14.9629 24.6055 13.9101L19.6607 9.54534C18.1619 8.22238 16 9.45664 16 11.6353V20.3647C16 22.5434 18.1619 23.7776 19.6607 22.4547Z" stroke="black"/>
</svg>

<svg width="32" height="32" fill="none" xmlns="http://www.w3.org/2000/svg"><path d="m10.16 22.455 4.945-4.365c1.193-1.053 1.193-3.127 0-4.18l-4.944-4.365C8.66 8.222 6.5 9.457 6.5 11.635v8.73c0 2.178 2.162 3.413 3.66 2.09Z" stroke="#000"/><path d="m19.66 22.455 4.945-4.365c1.193-1.053 1.193-3.127 0-4.18l-4.944-4.365C18.16 8.222 16 9.457 16 11.635v8.73c0 2.178 2.162 3.413 3.66 2.09Z" stroke="#000"/></svg>
